components/Common/Svg/svgs/titledReactiveSwift.svg

<svg
  width="125"
  height="138"
  viewBox="0 0 125 138"
  fill="none"
  xmlns="http://www.w3.org/2000/svg"
>
  <path
    d="M7.992 128L5.004 122.87H3.024V128H1.386V115.454H5.436C6.384 115.454 7.182 115.616 7.83 115.94C8.49 116.264 8.982 116.702 9.306 117.254C9.63 117.806 9.792 118.436 9.792 119.144C9.792 120.008 9.54 120.77 9.036 121.43C8.544 122.09 7.8 122.528 6.804 122.744L9.954 128H7.992ZM3.024 121.556H5.436C6.324 121.556 6.99 121.34 7.434 120.908C7.878 120.464 8.1 119.876 8.1 119.144C8.1 118.4 7.878 117.824 7.434 117.416C7.002 117.008 6.336 116.804 5.436 116.804H3.024V121.556ZM21.3372 122.69C21.3372 123.002 21.3192 123.332 21.2832 123.68H13.3992C13.4592 124.652 13.7892 125.414 14.3892 125.966C15.0012 126.506 15.7392 126.776 16.6032 126.776C17.3112 126.776 17.8992 126.614 18.3672 126.29C18.8472 125.954 19.1832 125.51 19.3752 124.958H21.1392C20.8752 125.906 20.3472 126.68 19.5552 127.28C18.7632 127.868 17.7792 128.162 16.6032 128.162C15.6672 128.162 14.8272 127.952 14.0832 127.532C13.3512 127.112 12.7752 126.518 12.3552 125.75C11.9352 124.97 11.7252 124.07 11.7252 123.05C11.7252 122.03 11.9292 121.136 12.3372 120.368C12.7452 119.6 13.3152 119.012 14.0472 118.604C14.7912 118.184 15.6432 117.974 16.6032 117.974C17.5392 117.974 18.3672 118.178 19.0872 118.586C19.8072 118.994 20.3592 119.558 20.7432 120.278C21.1392 120.986 21.3372 121.79 21.3372 122.69ZM19.6452 122.348C19.6452 121.724 19.5072 121.19 19.2312 120.746C18.9552 120.29 18.5772 119.948 18.0972 119.72C17.6292 119.48 17.1072 119.36 16.5312 119.36C15.7032 119.36 14.9952 119.624 14.4072 120.152C13.8312 120.68 13.5012 121.412 13.4172 122.348H19.6452ZM22.8873 123.032C22.8873 122.024 23.0913 121.142 23.4993 120.386C23.9073 119.618 24.4653 119.024 25.1733 118.604C25.8933 118.184 26.6913 117.974 27.5673 117.974C28.4313 117.974 29.1813 118.16 29.8173 118.532C30.4533 118.904 30.9273 119.372 31.2393 119.936V118.136H32.8953V128H31.2393V126.164C30.9153 126.74 30.4293 127.22 29.7813 127.604C29.1453 127.976 28.4013 128.162 27.5493 128.162C26.6733 128.162 25.8813 127.946 25.1733 127.514C24.4653 127.082 23.9073 126.476 23.4993 125.696C23.0913 124.916 22.8873 124.028 22.8873 123.032ZM31.2393 123.05C31.2393 122.306 31.0893 121.658 30.7893 121.106C30.4893 120.554 30.0813 120.134 29.5653 119.846C29.0613 119.546 28.5033 119.396 27.8913 119.396C27.2793 119.396 26.7213 119.54 26.2173 119.828C25.7133 120.116 25.3113 120.536 25.0113 121.088C24.7113 121.64 24.5613 122.288 24.5613 123.032C24.5613 123.788 24.7113 124.448 25.0113 125.012C25.3113 125.564 25.7133 125.99 26.2173 126.29C26.7213 126.578 27.2793 126.722 27.8913 126.722C28.5033 126.722 29.0613 126.578 29.5653 126.29C30.0813 125.99 30.4893 125.564 30.7893 125.012C31.0893 124.448 31.2393 123.794 31.2393 123.05ZM35.0513 123.05C35.0513 122.03 35.2553 121.142 35.6633 120.386C36.0713 119.618 36.6353 119.024 37.3553 118.604C38.0873 118.184 38.9213 117.974 39.8573 117.974C41.0693 117.974 42.0653 118.268 42.8453 118.856C43.6373 119.444 44.1593 120.26 44.4113 121.304H42.6473C42.4793 120.704 42.1493 120.23 41.6573 119.882C41.1773 119.534 40.5773 119.36 39.8573 119.36C38.9213 119.36 38.1653 119.684 37.5893 120.332C37.0133 120.968 36.7253 121.874 36.7253 123.05C36.7253 124.238 37.0133 125.156 37.5893 125.804C38.1653 126.452 38.9213 126.776 39.8573 126.776C40.5773 126.776 41.1773 126.608 41.6573 126.272C42.1373 125.936 42.4673 125.456 42.6473 124.832H44.4113C44.1473 125.84 43.6193 126.65 42.8273 127.262C42.0353 127.862 41.0453 128.162 39.8573 128.162C38.9213 128.162 38.0873 127.952 37.3553 127.532C36.6353 127.112 36.0713 126.518 35.6633 125.75C35.2553 124.982 35.0513 124.082 35.0513 123.05ZM48.5949 119.486V125.3C48.5949 125.78 48.6969 126.122 48.9009 126.326C49.1049 126.518 49.4589 126.614 49.9629 126.614H51.1689V128H49.6929C48.7809 128 48.0969 127.79 47.6409 127.37C47.1849 126.95 46.9569 126.26 46.9569 125.3V119.486H45.6789V118.136H46.9569V115.652H48.5949V118.136H51.1689V119.486H48.5949ZM53.9996 116.534C53.6876 116.534 53.4236 116.426 53.2076 116.21C52.9916 115.994 52.8836 115.73 52.8836 115.418C52.8836 115.106 52.9916 114.842 53.2076 114.626C53.4236 114.41 53.6876 114.302 53.9996 114.302C54.2996 114.302 54.5516 114.41 54.7556 114.626C54.9716 114.842 55.0796 115.106 55.0796 115.418C55.0796 115.73 54.9716 115.994 54.7556 116.21C54.5516 116.426 54.2996 116.534 53.9996 116.534ZM54.7916 118.136V128H53.1536V118.136H54.7916ZM61.2553 126.488L64.3153 118.136H66.0613L62.1913 128H60.2833L56.4133 118.136H58.1773L61.2553 126.488ZM76.6731 122.69C76.6731 123.002 76.6551 123.332 76.6191 123.68H68.7351C68.7951 124.652 69.1251 125.414 69.7251 125.966C70.3371 126.506 71.0751 126.776 71.9391 126.776C72.6471 126.776 73.2351 126.614 73.7031 126.29C74.1831 125.954 74.5191 125.51 74.7111 124.958H76.4751C76.2111 125.906 75.6831 126.68 74.8911 127.28C74.0991 127.868 73.1151 128.162 71.9391 128.162C71.0031 128.162 70.1631 127.952 69.4191 127.532C68.6871 127.112 68.1111 126.518 67.6911 125.75C67.2711 124.97 67.0611 124.07 67.0611 123.05C67.0611 122.03 67.2651 121.136 67.6731 120.368C68.0811 119.6 68.6511 119.012 69.3831 118.604C70.1271 118.184 70.9791 117.974 71.9391 117.974C72.8751 117.974 73.7031 118.178 74.4231 118.586C75.1431 118.994 75.6951 119.558 76.0791 120.278C76.4751 120.986 76.6731 121.79 76.6731 122.69ZM74.9811 122.348C74.9811 121.724 74.8431 121.19 74.5671 120.746C74.2911 120.29 73.9131 119.948 73.4331 119.72C72.9651 119.48 72.4431 119.36 71.8671 119.36C71.0391 119.36 70.3311 119.624 69.7431 120.152C69.1671 120.68 68.8371 121.412 68.7531 122.348H74.9811ZM87.612 128.126C86.784 128.126 86.04 127.982 85.38 127.694C84.732 127.394 84.222 126.986 83.85 126.47C83.478 125.942 83.286 125.336 83.274 124.652H85.02C85.08 125.24 85.32 125.738 85.74 126.146C86.172 126.542 86.796 126.74 87.612 126.74C88.392 126.74 89.004 126.548 89.448 126.164C89.904 125.768 90.132 125.264 90.132 124.652C90.132 124.172 90 123.782 89.736 123.482C89.472 123.182 89.142 122.954 88.746 122.798C88.35 122.642 87.816 122.474 87.144 122.294C86.316 122.078 85.65 121.862 85.146 121.646C84.654 121.43 84.228 121.094 83.868 120.638C83.52 120.17 83.346 119.546 83.346 118.766C83.346 118.082 83.52 117.476 83.868 116.948C84.216 116.42 84.702 116.012 85.326 115.724C85.962 115.436 86.688 115.292 87.504 115.292C88.68 115.292 89.64 115.586 90.384 116.174C91.14 116.762 91.566 117.542 91.662 118.514H89.862C89.802 118.034 89.55 117.614 89.106 117.254C88.662 116.882 88.074 116.696 87.342 116.696C86.658 116.696 86.1 116.876 85.668 117.236C85.236 117.584 85.02 118.076 85.02 118.712C85.02 119.168 85.146 119.54 85.398 119.828C85.662 120.116 85.98 120.338 86.352 120.494C86.736 120.638 87.27 120.806 87.954 120.998C88.782 121.226 89.448 121.454 89.952 121.682C90.456 121.898 90.888 122.24 91.248 122.708C91.608 123.164 91.788 123.788 91.788 124.58C91.788 125.192 91.626 125.768 91.302 126.308C90.978 126.848 90.498 127.286 89.862 127.622C89.226 127.958 88.476 128.126 87.612 128.126ZM107.339 118.136L104.261 128H102.569L100.193 120.17L97.8165 128H96.1245L93.0285 118.136H94.7025L96.9705 126.416L99.4185 118.136H101.093L103.487 126.434L105.719 118.136H107.339ZM109.81 116.534C109.498 116.534 109.234 116.426 109.018 116.21C108.802 115.994 108.694 115.73 108.694 115.418C108.694 115.106 108.802 114.842 109.018 114.626C109.234 114.41 109.498 114.302 109.81 114.302C110.11 114.302 110.362 114.41 110.566 114.626C110.782 114.842 110.89 115.106 110.89 115.418C110.89 115.73 110.782 115.994 110.566 116.21C110.362 116.426 110.11 116.534 109.81 116.534ZM110.602 118.136V128H108.964V118.136H110.602ZM117.408 119.486H115.338V128H113.7V119.486H112.422V118.136H113.7V117.434C113.7 116.33 113.982 115.526 114.546 115.022C115.122 114.506 116.04 114.248 117.3 114.248V115.616C116.58 115.616 116.07 115.76 115.77 116.048C115.482 116.324 115.338 116.786 115.338 117.434V118.136H117.408V119.486ZM121.316 119.486V125.3C121.316 125.78 121.418 126.122 121.622 126.326C121.826 126.518 122.18 126.614 122.684 126.614H123.89V128H122.414C121.502 128 120.818 127.79 120.362 127.37C119.906 126.95 119.678 126.26 119.678 125.3V119.486H118.4V118.136H119.678V115.652H121.316V118.136H123.89V119.486H121.316Z"
    fill="#A0A0A0"
  ></path>
  <g clip-path="url(#clip0_5402_15234)">
    <path
      d="M30.7397 53.5293C27.015 33.7636 36.859 14.7006 59.4534 12.1645C56.3374 8.84161 52.0808 8.81667 50.1227 9.22109C46.6646 10.3207 46.7731 12.5542 42.8507 15.4389C38.9513 17.6616 36.993 15.9595 34.1527 18.2638C31.3181 20.5509 33.2961 25.8014 32.1072 26.8225C30.9271 28.8638 27.2669 30.6824 26.6004 33.2608C26.0496 36.5584 28.0951 38.9141 28.0165 41.7407C28.2527 44.096 25.6671 45.428 26.0385 47.3373C27.1513 50.4561 29.2959 52.3334 30.307 53.1986C30.5387 53.3618 30.7835 53.7634 30.7395 53.5293H30.7397Z"
      fill="#AEAEAE"
    ></path>
    <path
      d="M70.9422 26.1681C70.7458 26.1681 70.5514 26.1295 70.3701 26.0545C70.1887 25.9795 70.0239 25.8696 69.8851 25.731C69.7463 25.5924 69.6362 25.4279 69.5611 25.2469C69.486 25.0659 69.4473 24.8718 69.4474 24.6759C69.4474 24.4799 69.4861 24.2859 69.5612 24.1049C69.6364 23.9239 69.7465 23.7594 69.8853 23.6208C70.0241 23.4823 70.189 23.3724 70.3703 23.2974C70.5517 23.2225 70.7461 23.1839 70.9424 23.1839C71.3389 23.1839 71.7192 23.3411 71.9995 23.6209C72.2799 23.9008 72.4374 24.2803 72.4374 24.676C72.4374 25.0718 72.2799 25.4513 71.9995 25.7311C71.7192 26.0109 71.3389 26.1681 70.9424 26.1681H70.9422ZM31.6113 55.6854C28.0316 38.5068 39.1082 24.1529 60.5582 31.2195C73.1444 38.5686 88.9778 38.0899 89.6913 33.3393C91.4537 27.6444 81.6672 15.9085 67.0351 12.8463C38.0068 7.19275 22.3574 38.5068 31.6113 55.6852V55.6854Z"
      fill="url(#paint0_radial_5402_15234)"
    ></path>
    <path
      d="M79.2277 57.6012C83.5379 58.0674 87.6295 57.035 91.421 53.9502C85.6928 60.3275 78.5301 63.5339 70.312 64.4062C74.236 67.7359 78.0201 69.2357 81.6401 68.5938C71.5812 71.3643 63.1535 68.3149 52.9015 58.1249C52.3649 60.868 55.2676 65.1419 58.2595 67.8699C40.8999 60.3584 39.378 36.9586 60.5461 31.2028C38.6031 20.6801 26.1951 41.1257 32.2911 57.8826C38.2558 70.7887 54.1503 80.7247 71.5707 78.5397C80.0321 77.5053 92.6681 71.6822 97.8301 57.8826C94.192 61.1412 87.6889 63.9791 84.787 64.1968C94.6085 59.2977 99.9109 50.9728 98.4224 39.5948C96.388 44.4291 93.7036 48.1419 90.346 50.6916C97.4786 39.5945 96.2548 33.8588 90.9755 27.5551C94.7514 37.9196 89.8667 49.4226 79.2277 57.6012Z"
      fill="url(#paint1_radial_5402_15234)"
    ></path>
    <path
      d="M74.1881 69.5417C73.4427 69.4028 75.8775 70.526 71.1703 69.2821C66.4634 68.0385 61.6708 66.84 52.9024 58.1245C52.3657 60.8679 55.2685 65.1416 58.2604 67.8699C66.3368 73.4921 60.8442 70.8626 73.1502 75.1086C74.1378 73.1469 74.1881 71.4034 74.1881 69.5417Z"
      fill="url(#paint2_linear_5402_15234)"
    ></path>
    <path
      d="M58.5406 25.3951C58.5406 25.3951 59.6105 23.8188 60.027 23.108C60.5376 22.2368 61.3213 20.6492 61.3213 20.6492C61.3213 20.6492 53.0858 17.9674 51.0647 17.6401C44.7819 19.2679 44.7591 21.8951 48.2715 25.9162C48.6622 26.364 58.5406 25.3951 58.5406 25.3951Z"
      fill="url(#paint3_linear_5402_15234)"
    ></path>
  </g>
  <defs>
    <radialGradient
      id="paint0_radial_5402_15234"
      cx="0"
      cy="0"
      r="1"
      gradientTransform="translate(76.9543 28.6416) scale(54.7713 39.106)"
    >
      <stop stop-color="#767676"></stop>
      <stop offset="1" stop-color="#939393"></stop>
    </radialGradient>
    <radialGradient
      id="paint1_radial_5402_15234"
      cx="0"
      cy="0"
      r="1"
      gradientTransform="translate(77.4352 29.8107) scale(55.5162 41.9159)"
    >
      <stop stop-color="#797979"></stop>
      <stop offset="0.29175" stop-color="#919191"></stop>
      <stop offset="1" stop-color="#C4C4C4"></stop>
    </radialGradient>
    <linearGradient
      id="paint2_linear_5402_15234"
      x1="56.7319"
      y1="58.1245"
      x2="66.5178"
      y2="74.6132"
      gradientUnits="userSpaceOnUse"
    >
      <stop stop-color="#A4A4A4"></stop>
      <stop offset="0.66971" stop-color="#B8B8B8"></stop>
      <stop
        offset="0.82715"
        stop-color="#B5B5B5"
        stop-opacity="0.2"
      ></stop>
      <stop
        offset="1"
        stop-color="#CACACA"
        stop-opacity="0"
      ></stop>
    </linearGradient>
    <linearGradient
      id="paint3_linear_5402_15234"
      x1="55.9156"
      y1="23.647"
      x2="54.4957"
      y2="20.9223"
      gradientUnits="userSpaceOnUse"
    >
      <stop
        stop-color="#545454"
        stop-opacity="0.151"
      ></stop>
      <stop
        offset="0.40035"
        stop-color="#ABABAB"
        stop-opacity="0.4"
      ></stop>
      <stop
        offset="0.649"
        stop-color="#AEAEAE"
        stop-opacity="0.892"
      ></stop>
      <stop offset="1" stop-color="#D1D1D1"></stop>
    </linearGradient>
    <clipPath id="clip0_5402_15234">
      <rect
        width="72.6923"
        height="70"
        fill="white"
        transform="translate(26 9)"
      ></rect>
    </clipPath>
  </defs>
</svg>

<svg width="125" height="138" viewBox="0 0 125 138" fill="none" xmlns="http://www.w3.org/2000/svg"><path d="m7.992 128-2.988-5.13h-1.98V128H1.386v-12.546h4.05c.948 0 1.746.162 2.394.486.66.324 1.152.762 1.476 1.314.324.552.486 1.182.486 1.89 0 .864-.252 1.626-.756 2.286-.492.66-1.236 1.098-2.232 1.314L9.954 128H7.992Zm-4.968-6.444h2.412c.888 0 1.554-.216 1.998-.648.444-.444.666-1.032.666-1.764 0-.744-.222-1.32-.666-1.728-.432-.408-1.098-.612-1.998-.612H3.024v4.752Zm18.313 1.134c0 .312-.018.642-.054.99H13.4c.06.972.39 1.734.99 2.286.612.54 1.35.81 2.214.81.708 0 1.296-.162 1.764-.486.48-.336.816-.78 1.008-1.332h1.764a4.284 4.284 0 0 1-1.584 2.322c-.792.588-1.776.882-2.952.882-.936 0-1.776-.21-2.52-.63a4.492 4.492 0 0 1-1.728-1.782c-.42-.78-.63-1.68-.63-2.7 0-1.02.204-1.914.612-2.682a4.254 4.254 0 0 1 1.71-1.764c.744-.42 1.596-.63 2.556-.63.936 0 1.764.204 2.484.612.72.408 1.272.972 1.656 1.692.396.708.594 1.512.594 2.412Zm-1.692-.342c0-.624-.138-1.158-.414-1.602a2.605 2.605 0 0 0-1.134-1.026c-.468-.24-.99-.36-1.566-.36-.828 0-1.536.264-2.124.792-.576.528-.906 1.26-.99 2.196h6.228Zm3.242.684c0-1.008.204-1.89.612-2.646a4.446 4.446 0 0 1 1.674-1.782c.72-.42 1.518-.63 2.394-.63.864 0 1.614.186 2.25.558.636.372 1.11.84 1.422 1.404v-1.8h1.656V128H31.24v-1.836c-.324.576-.81 1.056-1.458 1.44-.636.372-1.38.558-2.232.558-.876 0-1.668-.216-2.376-.648-.708-.432-1.266-1.038-1.674-1.818-.408-.78-.612-1.668-.612-2.664Zm8.352.018c0-.744-.15-1.392-.45-1.944a3.098 3.098 0 0 0-1.224-1.26 3.211 3.211 0 0 0-1.674-.45c-.612 0-1.17.144-1.674.432a3.134 3.134 0 0 0-1.206 1.26c-.3.552-.45 1.2-.45 1.944 0 .756.15 1.416.45 1.98.3.552.702.978 1.206 1.278a3.314 3.314 0 0 0 1.674.432c.612 0 1.17-.144 1.674-.432.516-.3.924-.726 1.224-1.278.3-.564.45-1.218.45-1.962Zm3.812 0c0-1.02.204-1.908.612-2.664a4.407 4.407 0 0 1 1.692-1.782c.732-.42 1.566-.63 2.502-.63 1.212 0 2.208.294 2.988.882.792.588 1.314 1.404 1.566 2.448h-1.764a2.518 2.518 0 0 0-.99-1.422c-.48-.348-1.08-.522-1.8-.522-.936 0-1.692.324-2.268.972-.576.636-.864 1.542-.864 2.718 0 1.188.288 2.106.864 2.754.576.648 1.332.972 2.268.972.72 0 1.32-.168 1.8-.504.48-.336.81-.816.99-1.44h1.764c-.264 1.008-.792 1.818-1.584 2.43-.792.6-1.782.9-2.97.9-.936 0-1.77-.21-2.502-.63a4.407 4.407 0 0 1-1.692-1.782c-.408-.768-.612-1.668-.612-2.7Zm13.544-3.564v5.814c0 .48.102.822.306 1.026.204.192.558.288 1.062.288h1.206V128h-1.476c-.912 0-1.596-.21-2.052-.63-.456-.42-.684-1.11-.684-2.07v-5.814h-1.278v-1.35h1.278v-2.484h1.638v2.484h2.574v1.35h-2.574ZM54 116.534c-.312 0-.576-.108-.792-.324a1.077 1.077 0 0 1-.324-.792c0-.312.108-.576.324-.792.216-.216.48-.324.792-.324.3 0 .552.108.756.324.216.216.324.48.324.792 0 .312-.108.576-.324.792a.998.998 0 0 1-.756.324Zm.792 1.602V128h-1.638v-9.864h1.638Zm6.463 8.352 3.06-8.352h1.746L62.191 128h-1.908l-3.87-9.864h1.764l3.078 8.352Zm15.418-3.798c0 .312-.018.642-.054.99h-7.884c.06.972.39 1.734.99 2.286.612.54 1.35.81 2.214.81.708 0 1.296-.162 1.764-.486.48-.336.816-.78 1.008-1.332h1.764a4.284 4.284 0 0 1-1.584 2.322c-.792.588-1.776.882-2.952.882-.936 0-1.776-.21-2.52-.63a4.492 4.492 0 0 1-1.728-1.782c-.42-.78-.63-1.68-.63-2.7 0-1.02.204-1.914.612-2.682a4.254 4.254 0 0 1 1.71-1.764c.744-.42 1.596-.63 2.556-.63.936 0 1.764.204 2.484.612.72.408 1.272.972 1.656 1.692.396.708.594 1.512.594 2.412Zm-1.692-.342c0-.624-.138-1.158-.414-1.602a2.605 2.605 0 0 0-1.134-1.026c-.468-.24-.99-.36-1.566-.36-.828 0-1.536.264-2.124.792-.576.528-.906 1.26-.99 2.196h6.228Zm12.631 5.778c-.828 0-1.572-.144-2.232-.432-.648-.3-1.158-.708-1.53-1.224a3.178 3.178 0 0 1-.576-1.818h1.746c.06.588.3 1.086.72 1.494.432.396 1.056.594 1.872.594.78 0 1.392-.192 1.836-.576.456-.396.684-.9.684-1.512 0-.48-.132-.87-.396-1.17a2.53 2.53 0 0 0-.99-.684c-.396-.156-.93-.324-1.602-.504-.828-.216-1.494-.432-1.998-.648a3.318 3.318 0 0 1-1.278-1.008c-.348-.468-.522-1.092-.522-1.872 0-.684.174-1.29.522-1.818.348-.528.834-.936 1.458-1.224.636-.288 1.362-.432 2.178-.432 1.176 0 2.136.294 2.88.882.756.588 1.182 1.368 1.278 2.34h-1.8c-.06-.48-.312-.9-.756-1.26-.444-.372-1.032-.558-1.764-.558-.684 0-1.242.18-1.674.54-.432.348-.648.84-.648 1.476 0 .456.126.828.378 1.116.264.288.582.51.954.666.384.144.918.312 1.602.504.828.228 1.494.456 1.998.684.504.216.936.558 1.296 1.026.36.456.54 1.08.54 1.872 0 .612-.162 1.188-.486 1.728-.324.54-.804.978-1.44 1.314-.636.336-1.386.504-2.25.504Zm19.727-9.99L104.261 128h-1.692l-2.376-7.83-2.376 7.83h-1.692l-3.097-9.864h1.674l2.269 8.28 2.447-8.28h1.675l2.394 8.298 2.232-8.298h1.62Zm2.471-1.602c-.312 0-.576-.108-.792-.324a1.077 1.077 0 0 1-.324-.792c0-.312.108-.576.324-.792.216-.216.48-.324.792-.324.3 0 .552.108.756.324.216.216.324.48.324.792 0 .312-.108.576-.324.792a.998.998 0 0 1-.756.324Zm.792 1.602V128h-1.638v-9.864h1.638Zm6.806 1.35h-2.07V128H113.7v-8.514h-1.278v-1.35h1.278v-.702c0-1.104.282-1.908.846-2.412.576-.516 1.494-.774 2.754-.774v1.368c-.72 0-1.23.144-1.53.432-.288.276-.432.738-.432 1.386v.702h2.07v1.35Zm3.908 0v5.814c0 .48.102.822.306 1.026.204.192.558.288 1.062.288h1.206V128h-1.476c-.912 0-1.596-.21-2.052-.63-.456-.42-.684-1.11-.684-2.07v-5.814H118.4v-1.35h1.278v-2.484h1.638v2.484h2.574v1.35h-2.574Z" fill="#A0A0A0"/><g clip-path="url(#a)"><path d="M30.74 53.53c-3.725-19.766 6.119-38.83 28.713-41.366-3.116-3.322-7.372-3.347-9.33-2.943-3.458 1.1-3.35 3.333-7.272 6.218-3.9 2.223-5.858.52-8.698 2.825-2.835 2.287-.857 7.537-2.046 8.559-1.18 2.04-4.84 3.86-5.507 6.438-.55 3.297 1.495 5.653 1.416 8.48.237 2.355-2.349 3.687-1.977 5.596 1.112 3.12 3.257 4.996 4.268 5.862.232.163.477.564.433.33Z" fill="#AEAEAE"/><path d="M70.942 26.168a1.497 1.497 0 0 1-1.495-1.492 1.49 1.49 0 0 1 1.495-1.492 1.496 1.496 0 0 1 1.495 1.492 1.49 1.49 0 0 1-1.495 1.492Zm-39.33 29.517c-3.58-17.178 7.496-31.532 28.946-24.466 12.586 7.35 28.42 6.87 29.133 2.12 1.763-5.695-8.024-17.43-22.656-20.493-29.028-5.653-44.678 25.66-35.424 42.84Z" fill="url(#b)"/><path d="M79.228 57.601c4.31.466 8.401-.566 12.193-3.65-5.728 6.377-12.89 9.583-21.109 10.455 3.924 3.33 7.708 4.83 11.328 4.188-10.059 2.77-18.486-.28-28.739-10.47-.536 2.744 2.367 7.018 5.358 9.746-17.36-7.512-18.881-30.911 2.287-36.667-21.943-10.523-34.35 9.923-28.255 26.68 5.965 12.906 21.86 22.842 39.28 20.657 8.461-1.035 21.097-6.858 26.26-20.657-3.639 3.258-10.142 6.096-13.044 6.314 9.822-4.9 15.124-13.224 13.635-24.602-2.034 4.834-4.718 8.547-8.076 11.097 7.133-11.098 5.909-16.833.63-23.137 3.775 10.365-1.11 21.868-11.748 30.046Z" fill="url(#c)"/><path d="M74.188 69.542c-.745-.14 1.69.984-3.018-.26-4.707-1.243-9.5-2.442-18.268-11.157-.536 2.743 2.367 7.017 5.358 9.745 8.077 5.622 2.584 2.993 14.89 7.239.988-1.962 1.038-3.706 1.038-5.567Z" fill="url(#d)"/><path d="M58.54 25.395s1.07-1.576 1.487-2.287c.51-.871 1.294-2.459 1.294-2.459s-8.235-2.682-10.256-3.009c-6.283 1.628-6.306 4.255-2.793 8.276.39.448 10.269-.52 10.269-.52Z" fill="url(#e)"/></g><defs><radialGradient id="b" cx="0" cy="0" r="1" gradientTransform="matrix(54.7713 0 0 39.106 76.954 28.642)"><stop stop-color="#767676"/><stop offset="1" stop-color="#939393"/></radialGradient><radialGradient id="c" cx="0" cy="0" r="1" gradientTransform="matrix(55.5162 0 0 41.9159 77.435 29.81)"><stop stop-color="#797979"/><stop offset=".292" stop-color="#919191"/><stop offset="1" stop-color="#C4C4C4"/></radialGradient><linearGradient id="d" x1="56.732" y1="58.124" x2="66.518" y2="74.613" gradientUnits="userSpaceOnUse"><stop stop-color="#A4A4A4"/><stop offset=".67" stop-color="#B8B8B8"/><stop offset=".827" stop-color="#B5B5B5" stop-opacity=".2"/><stop offset="1" stop-color="#CACACA" stop-opacity="0"/></linearGradient><linearGradient id="e" x1="55.916" y1="23.647" x2="54.496" y2="20.922" gradientUnits="userSpaceOnUse"><stop stop-color="#545454" stop-opacity=".151"/><stop offset=".4" stop-color="#ABABAB" stop-opacity=".4"/><stop offset=".649" stop-color="#AEAEAE" stop-opacity=".892"/><stop offset="1" stop-color="#D1D1D1"/></linearGradient><clipPath id="a"><path fill="#fff" transform="translate(26 9)" d="M0 0h72.692v70H0z"/></clipPath></defs></svg>
